view/frontend/web/svg/flags/sz.svg

<svg width="24" height="24" viewbox="0 0 20 15" viewBox="0 0 20 15" fill="none" xmlns="http://www.w3.org/2000/svg">
<g clip-path="url(#clip0_270_60804)">
<rect width="20" height="15" fill="white"/>
<path fill-rule="evenodd" clip-rule="evenodd" d="M0 0H20V15H0V0Z" fill="#3D58DB"/>
<path d="M0 3.125H-0.625V3.75V11.25V11.875H0H20H20.625V11.25V3.75V3.125H20H0Z" fill="#C51918" stroke="#FFD018" stroke-width="1.25"/>
<path d="M4.46833 5.83189C4.39336 5.83189 4.33258 5.66239 4.33258 5.4533C4.33258 5.24421 4.39336 5.07471 4.46833 5.07471H15.3501C15.425 5.07471 15.4858 5.24421 15.4858 5.4533C15.4858 5.66239 15.425 5.83189 15.3501 5.83189H4.46833Z" fill="#FFD018"/>
<path fill-rule="evenodd" clip-rule="evenodd" d="M15.0595 5.37637L15.6914 4.57025L16.8095 5.37637L15.6914 6.20369L15.0595 5.37637Z" fill="#F7FCFF"/>
<path d="M4.46833 8.33189C4.39336 8.33189 4.33258 8.16239 4.33258 7.9533C4.33258 7.74421 4.39336 7.57471 4.46833 7.57471H15.3501C15.425 7.57471 15.4858 7.74421 15.4858 7.9533C15.4858 8.16239 15.425 8.33189 15.3501 8.33189H4.46833Z" fill="#FFD018"/>
<path fill-rule="evenodd" clip-rule="evenodd" d="M15.0595 7.87637L15.6914 7.07025L16.8095 7.87637L15.6914 8.70369L15.0595 7.87637Z" fill="#F7FCFF"/>
<path d="M2.71594 9.8886C2.61542 9.8886 2.53394 9.69614 2.53394 9.45873C2.53394 9.22133 2.61542 9.02887 2.71594 9.02887H17.3061C17.4066 9.02887 17.4881 9.22133 17.4881 9.45873C17.4881 9.69614 17.4066 9.8886 17.3061 9.8886H2.71594Z" fill="#FFD018"/>
<path fill-rule="evenodd" clip-rule="evenodd" d="M5.51082 7.53298C5.51082 7.53298 7.28666 3.79547 9.82661 3.79547C12.3666 3.79547 14.2021 7.53298 14.2021 7.53298C14.2021 7.53298 11.9608 11.2214 9.85647 11.2214C7.75216 11.2214 5.51082 7.53298 5.51082 7.53298Z" fill="#F7FCFF"/>
<mask id="mask0_270_60804" style="mask-type:luminance" maskUnits="userSpaceOnUse" x="5" y="3" width="10" height="9">
<path fill-rule="evenodd" clip-rule="evenodd" d="M5.51082 7.53298C5.51082 7.53298 7.28666 3.79547 9.82661 3.79547C12.3666 3.79547 14.2021 7.53298 14.2021 7.53298C14.2021 7.53298 11.9608 11.2214 9.85647 11.2214C7.75216 11.2214 5.51082 7.53298 5.51082 7.53298Z" fill="white"/>
</mask>
<g mask="url(#mask0_270_60804)">
<path fill-rule="evenodd" clip-rule="evenodd" d="M9.95267 3.55011C9.95267 3.55011 9.37313 4.25399 9.56631 4.92518C9.75949 5.59638 10.2096 5.52549 10.2096 6.11659C10.2096 6.70769 10.0017 7.31053 10.2096 7.31053C10.4175 7.31053 10.4896 7.71844 10.2995 7.99497C10.1095 8.27151 9.94141 8.28005 9.95267 8.73012C9.96393 9.18018 10.9477 9.62198 10.4711 9.62198C9.99458 9.62198 9.36647 10.0845 9.56631 10.0845C9.76615 10.0845 10.8117 10.4449 10.8117 10.9179C10.8117 11.3909 10.8117 11.7694 10.8117 11.7694H5.35704V3.55011H9.95267Z" fill="#272727"/>
<path fill-rule="evenodd" clip-rule="evenodd" d="M7.38688 6.20197H7.11539V7.30773H7.38688V6.20197ZM8.18779 6.20197H7.91629V7.30773H8.18779V6.20197ZM7.51584 6.20197H7.78733V7.30773H7.51584V6.20197ZM8.58824 6.20197H8.31674V7.30773H8.58824V6.20197ZM8.7172 6.20197H8.98869V7.30773H8.7172V6.20197ZM9.38914 6.20197H9.11765V7.30773H9.38914V6.20197ZM7.11539 7.7885H7.38688V8.89427H7.11539V7.7885ZM8.18779 7.7885H7.91629V8.89427H8.18779V7.7885ZM7.51584 7.7885H7.78733V8.89427H7.51584V7.7885ZM8.58824 7.7885H8.31674V8.89427H8.58824V7.7885ZM8.7172 7.7885H8.98869V8.89427H8.7172V7.7885ZM9.38914 7.7885H9.11765V8.89427H9.38914V7.7885Z" fill="#F7FCFF"/>
<path fill-rule="evenodd" clip-rule="evenodd" d="M10.6109 6.20197H10.3394V7.30773H10.6109V6.20197ZM11.4118 6.20197H11.1403V7.30773H11.4118V6.20197ZM10.7398 6.20197H11.0113V7.30773H10.7398V6.20197ZM11.8122 6.20197H11.5407V7.30773H11.8122V6.20197ZM11.9412 6.20197H12.2127V7.30773H11.9412V6.20197ZM12.6131 6.20197H12.3416V7.30773H12.6131V6.20197ZM10.3394 7.7885H10.6109V8.89427H10.3394V7.7885ZM11.4118 7.7885H11.1403V8.89427H11.4118V7.7885ZM10.7398 7.7885H11.0113V8.89427H10.7398V7.7885ZM11.8122 7.7885H11.5407V8.89427H11.8122V7.7885ZM11.9412 7.7885H12.2127V8.89427H11.9412V7.7885ZM12.6131 7.7885H12.3416V8.89427H12.6131V7.7885Z" fill="#272727"/>
<path fill-rule="evenodd" clip-rule="evenodd" d="M8.26976 4.41978C7.88945 4.53761 7.71541 5.53499 7.75792 5.77607C7.80043 6.01715 7.92947 5.74582 7.92947 5.74582C7.92947 5.74582 8.19262 6.31776 8.21975 6.47163C8.24688 6.62551 8.38547 6.23904 8.38547 6.23904C8.38547 6.23904 8.84192 6.55349 8.9037 6.90387C8.96548 7.25425 9.0584 6.50292 9.0584 6.50292L9.1618 6.48469L9.09638 6.11368L9.29357 6.28229L9.23273 5.93727C9.23273 5.93727 9.38124 6.13134 9.34357 5.91773C9.3059 5.70411 9.28487 5.58486 9.28487 5.58486L9.23339 5.29288L9.42857 5.25847C9.42857 5.25847 8.65007 4.30195 8.26976 4.41978Z" fill="#3D58DB"/>
</g>
<path fill-rule="evenodd" clip-rule="evenodd" d="M16.3052 8.55996C15.9102 8.60996 15.5656 9.56197 15.5656 9.80676C15.5656 10.0516 15.7398 9.80676 15.7398 9.80676C15.7398 9.80676 15.8996 10.4157 15.8996 10.572C15.8996 10.7282 16.1032 10.3717 16.1032 10.3717C16.1032 10.3717 16.4981 10.7606 16.4981 11.1164C16.4981 11.4722 16.7201 10.7484 16.7201 10.7484H16.8251V10.3717L16.99 10.572V10.2216C16.99 10.2216 17.1026 10.4385 17.1026 10.2216C17.1026 10.0047 17.1026 9.88361 17.1026 9.88361V9.58713H17.3008C17.3008 9.58713 16.7002 8.50996 16.3052 8.55996Z" fill="#3D58DB"/>
<path fill-rule="evenodd" clip-rule="evenodd" d="M3.49557 8.41573C3.89056 8.46573 4.23515 9.41774 4.23515 9.66254C4.23515 9.90734 4.06096 9.66254 4.06096 9.66254C4.06096 9.66254 3.90111 10.2715 3.90111 10.4277C3.90111 10.584 3.69753 10.2274 3.69753 10.2274C3.69753 10.2274 3.30262 10.6164 3.30262 10.9722C3.30262 11.328 3.08064 10.6042 3.08064 10.6042H2.97565V10.2274L2.81073 10.4277V10.0774C2.81073 10.0774 2.69819 10.2943 2.69819 10.0774C2.69819 9.86048 2.69819 9.73938 2.69819 9.73938V9.44291H2.5C2.5 9.44291 3.10057 8.36573 3.49557 8.41573Z" fill="#3D58DB"/>
</g>
<defs>
<clipPath id="clip0_270_60804">
<rect width="20" height="15" fill="white"/>
</clipPath>
</defs>
</svg>

<svg width="24" height="24" viewbox="0 0 20 15" fill="none" xmlns="http://www.w3.org/2000/svg">
  <mask id="a" maskUnits="userSpaceOnUse" x="0" y="0" width="20" height="15">
    <path fill="#fff" d="M0 0h20v15H0z"/>
  </mask>
  <g mask="url(#a)">
    <path fill-rule="evenodd" clip-rule="evenodd" d="M0 0h20v15H0V0z" fill="#3D58DB"/>
    <path d="M0 3.125h-.625v8.75h21.25v-8.75H0z" fill="#C51918" stroke="#FFD018" stroke-width="1.25"/>
    <path d="M4.468 5.832c-.075 0-.135-.17-.135-.379s.06-.378.135-.378H15.35c.075 0 .136.17.136.378 0 .21-.061.379-.136.379H4.468z" fill="#FFD018"/>
    <path fill-rule="evenodd" clip-rule="evenodd" d="M15.06 5.376l.631-.806 1.118.806-1.118.828-.632-.828z" fill="#F7FCFF"/>
    <path d="M4.468 8.332c-.075 0-.135-.17-.135-.379s.06-.378.135-.378H15.35c.075 0 .136.17.136.378 0 .21-.061.379-.136.379H4.468z" fill="#FFD018"/>
    <path fill-rule="evenodd" clip-rule="evenodd" d="M15.06 7.876l.631-.806 1.118.806-1.118.828-.632-.828z" fill="#F7FCFF"/>
    <path d="M2.716 9.889c-.1 0-.182-.193-.182-.43 0-.238.081-.43.182-.43h14.59c.1 0 .182.192.182.43 0 .237-.081.43-.182.43H2.716z" fill="#FFD018"/>
    <path fill-rule="evenodd" clip-rule="evenodd" d="M5.51 7.533s1.777-3.738 4.317-3.738 4.375 3.738 4.375 3.738-2.241 3.688-4.346 3.688c-2.104 0-4.345-3.688-4.345-3.688z" fill="#F7FCFF"/>
    <mask id="b" maskUnits="userSpaceOnUse" x="5" y="3" width="10" height="9">
      <path fill-rule="evenodd" clip-rule="evenodd" d="M5.51 7.533s1.777-3.738 4.317-3.738 4.375 3.738 4.375 3.738-2.241 3.688-4.346 3.688c-2.104 0-4.345-3.688-4.345-3.688z" fill="#fff"/>
    </mask>
    <g mask="url(#b)" fill-rule="evenodd" clip-rule="evenodd">
      <path d="M9.953 3.55s-.58.704-.387 1.375c.193.671.644.6.644 1.192 0 .59-.208 1.194 0 1.194.207 0 .28.407.09.684-.19.277-.359.285-.347.735.01.45.995.892.518.892-.476 0-1.105.463-.905.463.2 0 1.246.36 1.246.833v.851H5.357V3.55h4.596z" fill="#272727"/>
      <path d="M7.387 6.202h-.272v1.106h.272V6.202zm.8 0h-.27v1.106h.27V6.202zm-.671 0h.271v1.106h-.271V6.202zm1.072 0h-.271v1.106h.271V6.202zm.13 0h.27v1.106h-.27V6.202zm.671 0h-.271v1.106h.271V6.202zM7.115 7.789h.272v1.105h-.272V7.788zm1.073 0h-.272v1.105h.272V7.788zm-.672 0h.271v1.105h-.271V7.788zm1.072 0h-.271v1.105h.271V7.788zm.13 0h.27v1.105h-.27V7.788zm.671 0h-.271v1.105h.271V7.788z" fill="#F7FCFF"/>
      <path d="M10.61 6.202h-.27v1.106h.27V6.202zm.802 0h-.272v1.106h.272V6.202zm-.672 0h.271v1.106h-.271V6.202zm1.072 0h-.271v1.106h.271V6.202zm.13 0h.27v1.106h-.27V6.202zm.671 0h-.271v1.106h.271V6.202zM10.34 7.789h.272v1.105h-.272V7.788zm1.073 0h-.272v1.105h.272V7.788zm-.672 0h.271v1.105h-.271V7.788zm1.072 0h-.271v1.105h.271V7.788zm.13 0h.27v1.105h-.27V7.788zm.671 0h-.271v1.105h.271V7.788z" fill="#272727"/>
      <path d="M8.27 4.42c-.38.118-.555 1.115-.512 1.356.042.241.171-.03.171-.03s.264.572.29.726c.028.154.166-.233.166-.233s.457.314.519.665c.061.35.154-.401.154-.401l.104-.018-.066-.371.198.168-.061-.345s.148.194.11-.02l-.058-.332-.052-.292.196-.035s-.779-.956-1.16-.838z" fill="#3D58DB"/>
    </g>
    <path fill-rule="evenodd" clip-rule="evenodd" d="M16.305 8.56c-.395.05-.74 1.002-.74 1.247 0 .245.175 0 .175 0s.16.609.16.765c0 .156.203-.2.203-.2s.395.389.395.744c0 .356.222-.368.222-.368h.105v-.376l.165.2v-.35s.113.216.113 0v-.635h.198s-.6-1.077-.996-1.027zM3.496 8.416c.395.05.74 1.002.74 1.247 0 .244-.175 0-.175 0s-.16.608-.16.765c0 .156-.203-.2-.203-.2s-.395.388-.395.744-.222-.368-.222-.368h-.105v-.377l-.165.2v-.35s-.113.217-.113 0v-.634H2.5s.6-1.077.996-1.027z" fill="#3D58DB"/>
  </g>
</svg>
